src/Resource_Files/fluent/heading-2.svg

<svg clip-rule="evenodd" fill-rule="evenodd" stroke-linejoin="round" stroke-miterlimit="2" viewBox="0 0 16 16" xmlns="http://www.w3.org/2000/svg"><g fill="#1abc9c" fill-rule="nonzero"><path d="m2.189 7.242c.096-.078.199-.153.311-.226.394-.258.894-.394 1.503-.394.432 0 .838.076 1.217.226.381.151.714.358 1.001.622.288.265.518.576.689.934.174.363.261.748.261 1.155v4.083c0 .201-.079.346-.212.446-.113.086-.242.129-.386.129-.128 0-.252-.04-.37-.129-.133-.1-.211-.245-.211-.446v-4.083c0-.219-.05-.437-.147-.652-.1-.22-.238-.413-.414-.579-.181-.171-.392-.309-.634-.416-.235-.104-.484-.156-.746-.156-.238 0-.468.042-.692.126-.222.084-.42.202-.592.356-.171.154-.311.343-.419.567-.107.222-.159.474-.159.754v4.083c0 .15-.054.285-.17.402-.11.111-.251.173-.428.173-.185 0-.326-.068-.431-.185-.101-.114-.15-.245-.15-.39v-10.689c0-.188.066-.322.168-.416.093-.085.227-.144.413-.144.168 0 .301.051.405.137.124.102.193.241.193.423z"/><path d="m10.18 13.068h5.05c.157 0 .29.053.402.155.117.108.18.247.18.419 0 .15-.054.285-.17.402-.114.116-.252.173-.412.173h-5.648c-.125 0-.254-.041-.38-.138-.146-.111-.217-.258-.217-.437v-1.414c0-.479.156-.918.472-1.317.285-.359.642-.702 1.072-1.025.414-.311.86-.618 1.338-.919.461-.29.89-.594 1.289-.913.383-.307.703-.636.957-.989.23-.32.345-.68.345-1.079 0-.226-.044-.455-.13-.685-.086-.228-.214-.43-.385-.608-.174-.181-.395-.327-.66-.44-.272-.116-.591-.172-.956-.172-.546 0-1.001.137-1.362.422-.34.269-.5.669-.5 1.191 0 .13-.045.257-.15.375-.097.11-.247.185-.463.185-.165 0-.295-.057-.394-.158-.108-.108-.188-.29-.188-.562 0-.37.08-.716.239-1.036.157-.315.373-.589.65-.822.27-.226.592-.408.968-.543.37-.133.781-.2 1.232-.2.498 0 .949.084 1.355.249.409.166.756.387 1.042.661.29.278.513.603.667.973.153.369.23.754.23 1.155 0 .59-.153 1.114-.456 1.572-.285.432-.643.831-1.074 1.197-.418.354-.869.683-1.352.988-.465.293-.899.584-1.302.872-.386.277-.708.558-.964.844-.214.239-.325.499-.325.784z"/></g></svg>

<?xml version="1.0" encoding="UTF-8" standalone="no"?>
<!DOCTYPE svg PUBLIC "-//W3C//DTD SVG 1.1//EN" "http://www.w3.org/Graphics/SVG/1.1/DTD/svg11.dtd">
<svg width="100%" height="100%" viewBox="0 0 16 16" version="1.1" xmlns="http://www.w3.org/2000/svg" xmlns:xlink="http://www.w3.org/1999/xlink" xml:space="preserve" xmlns:serif="http://www.serif.com/" style="fill-rule:evenodd;clip-rule:evenodd;stroke-linejoin:round;stroke-miterlimit:2;">
    <path d="M2.189,7.242C2.285,7.164 2.388,7.089 2.5,7.016C2.894,6.758 3.394,6.622 4.003,6.622C4.435,6.622 4.841,6.698 5.22,6.848C5.601,6.999 5.934,7.206 6.221,7.47C6.509,7.735 6.739,8.046 6.91,8.404C7.084,8.767 7.171,9.152 7.171,9.559C7.171,9.559 7.171,13.642 7.171,13.642C7.171,13.843 7.092,13.988 6.959,14.088C6.846,14.174 6.717,14.217 6.573,14.217C6.445,14.217 6.321,14.177 6.203,14.088C6.07,13.988 5.992,13.843 5.992,13.642L5.992,9.559C5.992,9.34 5.942,9.122 5.845,8.907C5.745,8.687 5.607,8.494 5.431,8.328C5.25,8.157 5.039,8.019 4.797,7.912C4.562,7.808 4.313,7.756 4.051,7.756C3.813,7.756 3.583,7.798 3.359,7.882C3.137,7.966 2.939,8.084 2.767,8.238C2.596,8.392 2.456,8.581 2.348,8.805C2.241,9.027 2.189,9.279 2.189,9.559L2.189,13.642C2.189,13.792 2.135,13.927 2.019,14.044C1.909,14.155 1.768,14.217 1.591,14.217C1.406,14.217 1.265,14.149 1.16,14.032C1.059,13.918 1.01,13.787 1.01,13.642L1.01,2.953C1.01,2.765 1.076,2.631 1.178,2.537C1.271,2.452 1.405,2.393 1.591,2.393C1.759,2.393 1.892,2.444 1.996,2.53C2.12,2.632 2.189,2.771 2.189,2.953L2.189,7.242Z" style="fill:rgb(26,188,156);fill-rule:nonzero;"/>
    <path d="M10.18,13.068L15.23,13.068C15.387,13.068 15.52,13.121 15.632,13.223C15.749,13.331 15.812,13.47 15.812,13.642C15.812,13.792 15.758,13.927 15.642,14.044C15.528,14.16 15.39,14.217 15.23,14.217L9.582,14.217C9.457,14.217 9.328,14.176 9.202,14.079C9.056,13.968 8.985,13.821 8.985,13.642L8.985,12.228C8.985,11.749 9.141,11.31 9.457,10.911C9.742,10.552 10.099,10.209 10.529,9.886C10.943,9.575 11.389,9.268 11.867,8.967C12.328,8.677 12.757,8.373 13.156,8.054C13.539,7.747 13.859,7.418 14.113,7.065C14.343,6.745 14.458,6.385 14.458,5.986C14.458,5.76 14.414,5.531 14.328,5.301C14.242,5.073 14.114,4.871 13.943,4.693C13.769,4.512 13.548,4.366 13.283,4.253C13.011,4.137 12.692,4.081 12.327,4.081C11.781,4.081 11.326,4.218 10.965,4.503C10.625,4.772 10.465,5.172 10.465,5.694C10.465,5.824 10.42,5.951 10.315,6.069C10.218,6.179 10.068,6.254 9.852,6.254C9.687,6.254 9.557,6.197 9.458,6.096C9.35,5.988 9.27,5.806 9.27,5.534C9.27,5.164 9.35,4.818 9.509,4.498C9.666,4.183 9.882,3.909 10.159,3.676C10.429,3.45 10.751,3.268 11.127,3.133C11.497,3 11.908,2.933 12.359,2.933C12.857,2.933 13.308,3.017 13.714,3.182C14.123,3.348 14.47,3.569 14.756,3.843C15.046,4.121 15.269,4.446 15.423,4.816C15.576,5.185 15.653,5.57 15.653,5.971C15.653,6.561 15.5,7.085 15.197,7.543C14.912,7.975 14.554,8.374 14.123,8.74C13.705,9.094 13.254,9.423 12.771,9.728C12.306,10.021 11.872,10.312 11.469,10.6C11.083,10.877 10.761,11.158 10.505,11.444C10.291,11.683 10.18,11.943 10.18,12.228L10.18,13.068Z" style="fill:rgb(26,188,156);fill-rule:nonzero;"/>
</svg>
